dist/img/notes-2.svg

<svg width="148" height="148" viewBox="0 0 148 148" fill="none" xmlns="http://www.w3.org/2000/svg">
<g filter="url(#filter0_dd)">
<path d="M63.6875 67.1875C56.45 67.1875 50.5625 73.075 50.5625 80.3125C50.5625 87.55 56.45 93.4375 63.6875 93.4375C70.925 93.4375 76.8125 87.55 76.8125 80.3125C76.8125 73.075 70.925 67.1875 63.6875 67.1875ZM63.6875 91.5625C57.4841 91.5625 52.4375 86.5159 52.4375 80.3125C52.4375 74.1091 57.4841 69.0625 63.6875 69.0625C69.8909 69.0625 74.9375 74.1091 74.9375 80.3125C74.9375 86.5159 69.8909 91.5625 63.6875 91.5625Z" fill="white"/>
<path d="M69.3125 57.8125H71.1875V59.6875H69.3125V57.8125Z" fill="white"/>
<path d="M73.0625 57.8125H74.9375V59.6875H73.0625V57.8125Z" fill="white"/>
<path d="M52.4375 44.6875H54.3125V46.5625H52.4375V44.6875Z" fill="white"/>
<path d="M56.1875 44.6875H58.0625V46.5625H56.1875V44.6875Z" fill="white"/>
<path d="M69.3125 77.5H67.4375V85H65.5625V79.375H63.6875V85H61.8125V77.5H59.9375V85H58.0625V75.625H56.1875V86.875H71.1875V85H69.3125V77.5Z" fill="white"/>
<path d="M94.0756 85.9375L87.5131 79.375H82.4375V76.8241L79.9944 76.0094C79.6091 74.5459 79.0269 73.1434 78.2591 71.8281L79.4122 69.5209L75.875 65.9837V63.4375C77.4256 63.4375 78.6875 62.1756 78.6875 60.625V59.6875H83.9244L86.7369 62.5H90.0219C90.47 65.1559 92.78 67.1875 95.5625 67.1875C98.6647 67.1875 101.188 64.6647 101.188 61.5625C101.188 60.5922 100.941 59.6791 100.507 58.8812L102.788 56.6003L101.462 55.2747L99.335 57.4019C98.3356 56.4953 97.0147 55.9375 95.5625 55.9375C92.7809 55.9375 90.4709 57.9691 90.0219 60.625H87.5131L84.7006 57.8125H78.6875V56.875C78.6875 55.3244 77.4256 54.0625 75.875 54.0625V50.3125C77.4256 50.3125 78.6875 49.0506 78.6875 47.5V46.5625H83.9244L86.7369 49.375H90.0219C90.47 52.0309 92.78 54.0625 95.5625 54.0625C98.6647 54.0625 101.188 51.5397 101.188 48.4375C101.188 47.4672 100.941 46.5541 100.507 45.7562L102.788 43.4753L101.462 42.1497L99.335 44.2769C98.3356 43.3703 97.0147 42.8125 95.5625 42.8125C92.7809 42.8125 90.4709 44.8441 90.0219 47.5H87.5131L84.7006 44.6875H78.6875V43.75C78.6875 42.1994 77.4256 40.9375 75.875 40.9375H51.5C49.9494 40.9375 48.6875 42.1994 48.6875 43.75V47.5C48.6875 49.0506 49.9494 50.3125 51.5 50.3125V54.0625C49.9494 54.0625 48.6875 55.3244 48.6875 56.875V60.625C48.6875 62.1756 49.9494 63.4375 51.5 63.4375V65.9837L47.9628 69.5209L49.1159 71.8281C48.3481 73.1434 47.7659 74.5459 47.3806 76.0094L44.9375 76.8241V83.8L47.3806 84.6147C47.7659 86.0781 48.3481 87.4806 49.1159 88.7959L47.9628 91.1031L52.8959 96.0363L55.2031 94.8831C56.5184 95.6509 57.9209 96.2331 59.3844 96.6184L60.1991 99.0625H67.175L67.9897 96.6194C69.4531 96.2341 70.8556 95.6519 72.1709 94.8831L74.4791 96.0372L79.4113 91.1041L78.2581 88.7969C79.0259 87.4816 79.6081 86.0791 79.9934 84.6156L82.4375 83.8009V81.25H86.7369L91.4244 85.9375H84.3125V99.0625H103.062V85.9375H94.0756ZM95.5625 57.8125C96.4972 57.8125 97.3428 58.1688 98 58.7369L95.5625 61.1744L94.3503 59.9622L93.0247 61.2878L95.5625 63.8256L99.0809 60.3072C99.2216 60.7019 99.3125 61.12 99.3125 61.5625C99.3125 63.6306 97.6306 65.3125 95.5625 65.3125C93.4944 65.3125 91.8125 63.6306 91.8125 61.5625C91.8125 59.4944 93.4944 57.8125 95.5625 57.8125ZM95.5625 44.6875C96.4972 44.6875 97.3428 45.0438 98 45.6119L95.5625 48.0494L94.3503 46.8372L93.0247 48.1628L95.5625 50.7006L99.0809 47.1822C99.2216 47.5769 99.3125 47.995 99.3125 48.4375C99.3125 50.5056 97.6306 52.1875 95.5625 52.1875C93.4944 52.1875 91.8125 50.5056 91.8125 48.4375C91.8125 46.3694 93.4944 44.6875 95.5625 44.6875ZM74 64.8278L72.1709 65.7419C70.8556 64.9731 69.4531 64.3919 67.9897 64.0056L67.8003 63.4375H74V64.8278ZM50.5625 47.5V43.75C50.5625 43.2334 50.9834 42.8125 51.5 42.8125H75.875C76.3916 42.8125 76.8125 43.2334 76.8125 43.75V47.5C76.8125 48.0166 76.3916 48.4375 75.875 48.4375H51.5C50.9834 48.4375 50.5625 48.0166 50.5625 47.5ZM53.375 50.3125H74V54.0625H53.375V50.3125ZM50.5625 60.625V56.875C50.5625 56.3584 50.9834 55.9375 51.5 55.9375H75.875C76.3916 55.9375 76.8125 56.3584 76.8125 56.875V60.625C76.8125 61.1416 76.3916 61.5625 75.875 61.5625H51.5C50.9834 61.5625 50.5625 61.1416 50.5625 60.625ZM59.5747 63.4375L59.3853 64.0056C57.9219 64.3909 56.5194 64.9731 55.2041 65.7409L53.375 64.8269V63.4375H59.5747ZM80.5625 82.4491L78.4119 83.1662L78.2947 83.6791C77.9234 85.2962 77.2841 86.8356 76.3953 88.255L76.1159 88.7013L77.1312 90.7337L74.1097 93.7553L72.0772 92.74L71.6309 93.0194C70.2116 93.9091 68.6722 94.5475 67.055 94.9188L66.5422 95.0359L65.8241 97.1875H61.55L60.8328 95.0369L60.32 94.9197C58.7028 94.5484 57.1634 93.9091 55.7441 93.0203L55.2978 92.7409L53.2653 93.7562L50.2437 90.7347L51.2591 88.7022L50.9797 88.2559C50.09 86.8366 49.4516 85.2972 49.0803 83.68L48.9631 83.1672L46.8125 82.4491V78.175L48.9631 77.4578L49.0803 76.945C49.4516 75.3278 50.0909 73.7884 50.9797 72.3691L51.2591 71.9228L50.2437 69.8903L53.2653 66.8687L55.2978 67.8841L55.7441 67.6047C57.1634 66.715 58.7028 66.0766 60.32 65.7053L60.8328 65.5881L61.5509 63.4375H65.8241L66.5413 65.5881L67.0541 65.7053C68.6712 66.0766 70.2106 66.7159 71.63 67.6047L72.0763 67.8841L74.1088 66.8687L77.1303 69.8903L76.115 71.9228L76.3944 72.3691C77.2841 73.7884 77.9225 75.3278 78.2938 76.945L78.4109 77.4578L80.5625 78.1759V82.4491ZM101.188 97.1875H86.1875V87.8125H101.188V97.1875Z" fill="white"/>
<path d="M88.0625 93.4375H99.3125V95.3125H88.0625V93.4375Z" fill="white"/>
<path d="M88.0625 89.6875H99.3125V91.5625H88.0625V89.6875Z" fill="white"/>
</g>
<defs>
<filter id="filter0_dd" x="0.9375" y="0.9375" width="146.125" height="146.125" filterUnits="userSpaceOnUse" color-interpolation-filters="sRGB">
<feFlood flood-opacity="0" result="BackgroundImageFix"/>
<feColorMatrix in="SourceAlpha" type="matrix" values="0 0 0 0 0 0 0 0 0 0 0 0 0 0 0 0 0 0 127 0" result="hardAlpha"/>
<feOffset dy="4"/>
<feGaussianBlur stdDeviation="22"/>
<feComposite in2="hardAlpha" operator="out"/>
<feColorMatrix type="matrix" values="0 0 0 0 1 0 0 0 0 1 0 0 0 0 1 0 0 0 0.25 0"/>
<feBlend mode="normal" in2="BackgroundImageFix" result="effect1_dropShadow"/>
<feColorMatrix in="SourceAlpha" type="matrix" values="0 0 0 0 0 0 0 0 0 0 0 0 0 0 0 0 0 0 127 0" result="hardAlpha"/>
<feOffset dy="1"/>
<feGaussianBlur stdDeviation="6.5"/>
<feComposite in2="hardAlpha" operator="out"/>
<feColorMatrix type="matrix" values="0 0 0 0 1 0 0 0 0 1 0 0 0 0 1 0 0 0 0.55 0"/>
<feBlend mode="normal" in2="effect1_dropShadow" result="effect2_dropShadow"/>
<feBlend mode="normal" in="SourceGraphic" in2="effect2_dropShadow" result="shape"/>
</filter>
</defs>
</svg>

<svg width="148" height="148" viewBox="0 0 148 148" fill="none" xmlns="http://www.w3.org/2000/svg"><g filter="url(#filter0_dd)" fill="#fff"><path d="M63.688 67.188c-7.238 0-13.126 5.887-13.126 13.124 0 7.238 5.888 13.126 13.126 13.126 7.237 0 13.124-5.888 13.124-13.126 0-7.237-5.887-13.124-13.124-13.124zm0 24.374c-6.204 0-11.25-5.046-11.25-11.25 0-6.203 5.046-11.25 11.25-11.25 6.203 0 11.25 5.047 11.25 11.25 0 6.204-5.047 11.25-11.25 11.25zm5.625-33.749h1.874v1.874h-1.874v-1.874zm3.75 0h1.874v1.874h-1.874v-1.874zM52.438 44.688h1.874v1.874h-1.874v-1.874zm3.75 0h1.874v1.874h-1.874v-1.874z"/><path d="M69.313 77.5h-1.876V85h-1.874v-5.625h-1.876V85h-1.874v-7.5h-1.876V85h-1.874v-9.375h-1.876v11.25h15V85h-1.874v-7.5z"/><path d="M94.076 85.938l-6.563-6.563h-5.076v-2.55l-2.443-.816a16.735 16.735 0 00-1.735-4.18l1.153-2.308-3.537-3.537v-2.546a2.816 2.816 0 002.813-2.813v-.938h5.236l2.813 2.813h3.285c.448 2.656 2.758 4.688 5.54 4.688a5.631 5.631 0 005.626-5.626c0-.97-.247-1.883-.681-2.68l2.281-2.282-1.326-1.325-2.127 2.127a5.598 5.598 0 00-3.772-1.465c-2.782 0-5.092 2.032-5.541 4.688h-2.509l-2.812-2.813h-6.013v-.937a2.816 2.816 0 00-2.813-2.813v-3.75a2.816 2.816 0 002.813-2.812v-.938h5.236l2.813 2.813h3.285c.448 2.656 2.758 4.688 5.54 4.688a5.631 5.631 0 005.626-5.626c0-.97-.247-1.883-.681-2.68l2.281-2.282-1.326-1.325-2.127 2.127a5.598 5.598 0 00-3.772-1.465c-2.782 0-5.092 2.032-5.541 4.688h-2.509l-2.812-2.813h-6.013v-.937a2.816 2.816 0 00-2.813-2.813H51.5a2.816 2.816 0 00-2.813 2.813v3.75a2.816 2.816 0 002.813 2.813v3.75a2.816 2.816 0 00-2.813 2.812v3.75a2.816 2.816 0 002.813 2.813v2.546l-3.537 3.537 1.153 2.307a16.735 16.735 0 00-1.735 4.181l-2.444.815V83.8l2.444.815a16.736 16.736 0 001.735 4.18l-1.153 2.308 4.933 4.933 2.307-1.153a16.735 16.735 0 004.181 1.735l.815 2.445h6.976l.815-2.444a16.702 16.702 0 004.18-1.736l2.31 1.154 4.931-4.933-1.153-2.307a16.735 16.735 0 001.735-4.181l2.445-.815V81.25h4.299l4.687 4.688h-7.112v13.124h18.75V85.939h-8.986zm1.487-28.126c.934 0 1.78.357 2.437.925l-2.438 2.437-1.212-1.212-1.325 1.326 2.537 2.538 3.519-3.519c.14.395.231.813.231 1.255a3.754 3.754 0 01-3.75 3.75 3.754 3.754 0 01-3.75-3.75 3.754 3.754 0 013.75-3.75zm0-13.124c.934 0 1.78.356 2.437.924l-2.438 2.437-1.212-1.212-1.325 1.326 2.537 2.538 3.519-3.519c.14.395.231.813.231 1.255a3.754 3.754 0 01-3.75 3.75 3.754 3.754 0 01-3.75-3.75 3.754 3.754 0 013.75-3.75zM74 64.828l-1.83.914a16.74 16.74 0 00-4.18-1.736l-.19-.569H74v1.39zM50.562 47.5v-3.75a.94.94 0 01.938-.938h24.375a.94.94 0 01.938.938v3.75a.94.94 0 01-.938.938H51.5a.939.939 0 01-.938-.938zm2.813 2.813H74v3.75H53.375v-3.75zm-2.813 10.312v-3.75a.94.94 0 01.938-.938h24.375a.94.94 0 01.938.938v3.75a.94.94 0 01-.938.938H51.5a.939.939 0 01-.938-.938zm9.013 2.813l-.19.568a16.736 16.736 0 00-4.18 1.735l-1.83-.914v-1.39h6.2zm20.987 19.011l-2.15.717-.117.513a14.88 14.88 0 01-1.9 4.576l-.28.446 1.016 2.033-3.021 3.021-2.033-1.015-.446.28a14.856 14.856 0 01-4.576 1.899l-.513.117-.718 2.151H61.55l-.717-2.15-.513-.117a14.878 14.878 0 01-4.576-1.9l-.446-.28-2.033 1.016-3.021-3.021 1.015-2.033-.28-.446a14.856 14.856 0 01-1.899-4.576l-.117-.513-2.15-.718v-4.274l2.15-.717.117-.513a14.878 14.878 0 011.9-4.576l.28-.446-1.016-2.033 3.021-3.021 2.033 1.015.446-.28a14.856 14.856 0 014.576-1.899l.513-.117.718-2.15h4.273l.717 2.15.513.117a14.88 14.88 0 014.576 1.9l.446.28 2.033-1.016 3.021 3.021-1.015 2.033.28.446a14.856 14.856 0 011.899 4.576l.117.513 2.151.718v4.273zm20.626 14.739h-15v-9.376h15v9.376z"/><path d="M88.063 93.438h11.25v1.874h-11.25v-1.874zm0-3.75h11.25v1.874h-11.25v-1.874z"/></g><defs><filter id="filter0_dd" x=".938" y=".938" width="146.125" height="146.125" filterUnits="userSpaceOnUse" color-interpolation-filters="sRGB"><feFlood flood-opacity="0" result="BackgroundImageFix"/><feColorMatrix in="SourceAlpha" values="0 0 0 0 0 0 0 0 0 0 0 0 0 0 0 0 0 0 127 0" result="hardAlpha"/><feOffset dy="4"/><feGaussianBlur stdDeviation="22"/><feComposite in2="hardAlpha" operator="out"/><feColorMatrix values="0 0 0 0 1 0 0 0 0 1 0 0 0 0 1 0 0 0 0.25 0"/><feBlend in2="BackgroundImageFix" result="effect1_dropShadow"/><feColorMatrix in="SourceAlpha" values="0 0 0 0 0 0 0 0 0 0 0 0 0 0 0 0 0 0 127 0" result="hardAlpha"/><feOffset dy="1"/><feGaussianBlur stdDeviation="6.5"/><feComposite in2="hardAlpha" operator="out"/><feColorMatrix values="0 0 0 0 1 0 0 0 0 1 0 0 0 0 1 0 0 0 0.55 0"/><feBlend in2="effect1_dropShadow" result="effect2_dropShadow"/><feBlend in="SourceGraphic" in2="effect2_dropShadow" result="shape"/></filter></defs></svg>
